COLOR/action 16/16/mail-mark-notjunk.svg

<svg enable-background="new" height="16" width="16" xmlns="http://www.w3.org/2000/svg"><g fill="#c43ac4" transform="matrix(1.142855 0 0 1.142855 -463.99934 -116.57118)"><path d="m410.21895 102-.3125.28125-3.625 3.62501-.28125.31249v.40625 4.75.40625l.28125.31251 3.625 3.62499.3125.28125h.40625 4.75.40625l.31249-.28125 3.62501-3.62499.28125-.31251v-.40625-4.75-.40625l-.28125-.31249-3.62501-3.62501-.31249-.28125h-.40625-4.75z" fill="#c43ac4"/><path d="m5.0195312.5-.3339843.30078125-3.88476565 3.88476565-.30078125.3339843v.4355469.064453l.30078125-.3339842 3.88476565-3.8847657.3339843-.3007812h.4355469 5.0898439.435547l.333984.3007812 3.884766 3.8847657.300781.3339843v-.0644531-.4355469l-.300781-.3339843-3.884766-3.88476565-.333984-.30078125h-.435547-5.0898439z" fill="#fef8ff" opacity=".3" stroke-width="1.071428" transform="matrix(.93333331 0 0 .93333331 405.53354 101.53334)"/><path d="m415.78196 116 .31171-.28073 3.62579-3.62578.28072-.31172v-.40651-.0601l-.28072.31171-3.62579 3.62579-.31171.28072h-.40652-4.75052-.40651l-.31171-.28072-3.62579-3.62579-.28073-.31171v.0601.40651l.28073.31172 3.62579 3.62578.31171.28073h.40651 4.75052z" fill="#000" opacity=".2"/></g><path d="m34.295107.51356563q0 1.46461167-.104615 2.66707037-.104615 1.1852278-.260923 2.3704572h-1.011689q-.156308-1.1852294-.260923-2.3704572-.104615-1.2024587-.104615-2.66707037v-3.27753023h1.742765zm.296615 7.86213357q0 .470153-.313846.819691-.312614.348306-.854152.348306-.541537 0-.854151-.348306-.313846-.349538-.313846-.819691 0-.470153.313846-.81969.313845-.348307.854151-.348307.541538 0 .854152.348307.313846.349537.313846.81969z" fill="#fff" stroke-width="1.230766" transform="translate(-25.423729 4.610149)"/></svg>

<?xml version="1.0" encoding="UTF-8" standalone="no"?>
<svg
   xmlns:dc="http://purl.org/dc/elements/1.1/"
   xmlns:cc="http://creativecommons.org/ns#"
   xmlns:rdf="http://www.w3.org/1999/02/22-rdf-syntax-ns#"
   xmlns:svg="http://www.w3.org/2000/svg"
   xmlns="http://www.w3.org/2000/svg"
   xmlns:sodipodi="http://sodipodi.sourceforge.net/DTD/sodipodi-0.dtd"
   xmlns:inkscape="http://www.inkscape.org/namespaces/inkscape"
   enable-background="new"
   height="16"
   width="16"
   version="1.1"
   id="svg12"
   sodipodi:docname="mail-mark-notjunk.svg"
   inkscape:version="0.92.4 (5da689c313, 2019-01-14)">
  <metadata
     id="metadata18">
    <rdf:RDF>
      <cc:Work
         rdf:about="">
        <dc:format>image/svg+xml</dc:format>
        <dc:type
           rdf:resource="http://purl.org/dc/dcmitype/StillImage" />
      </cc:Work>
    </rdf:RDF>
  </metadata>
  <defs
     id="defs16" />
  <sodipodi:namedview
     pagecolor="#ffffff"
     bordercolor="#666666"
     borderopacity="1"
     objecttolerance="10"
     gridtolerance="10"
     guidetolerance="10"
     inkscape:pageopacity="0"
     inkscape:pageshadow="2"
     inkscape:window-width="1920"
     inkscape:window-height="1016"
     id="namedview14"
     showgrid="true"
     inkscape:zoom="52.437598"
     inkscape:cx="7.9999957"
     inkscape:cy="11.051231"
     inkscape:window-x="0"
     inkscape:window-y="27"
     inkscape:window-maximized="1"
     inkscape:current-layer="g10">
    <inkscape:grid
       type="xygrid"
       id="grid853" />
  </sodipodi:namedview>
  <g
     transform="matrix(1.142855,0,0,1.142855,-463.99934,-116.57118)"
     id="g10"
     style="fill:#c43ac4;fill-opacity:1">
    <path
       d="m 410.21895,102 -0.3125,0.28125 -3.625,3.62501 -0.28125,0.31249 v 0.40625 4.75 0.40625 l 0.28125,0.31251 3.625,3.62499 0.3125,0.28125 h 0.40625 4.75 0.40625 l 0.31249,-0.28125 3.62501,-3.62499 0.28125,-0.31251 v -0.40625 -4.75 -0.40625 l -0.28125,-0.31249 -3.62501,-3.62501 L 415.78145,102 h -0.40625 -4.75 z"
       id="path4"
       inkscape:connector-curvature="0"
       style="fill:#c43ac4;fill-opacity:1"
       sodipodi:nodetypes="ccccccccccccccccccccccccc" />
    <path
       d="M 5.0195312,0.5 4.6855469,0.80078125 0.80078125,4.6855469 0.5,5.0195312 v 0.4355469 0.064453 L 0.80078125,5.1855469 4.6855469,1.3007812 5.0195312,1 h 0.4355469 5.0898439 0.435547 L 11.314453,1.3007812 15.199219,5.1855469 15.5,5.5195312 V 5.4550781 5.0195312 L 15.199219,4.6855469 11.314453,0.80078125 10.980469,0.5 H 10.544922 5.4550781 Z"
       transform="matrix(0.93333331,0,0,0.93333331,405.53354,101.53334)"
       id="path6"
       inkscape:connector-curvature="0"
       style="opacity:0.3;fill:#fef8ff;stroke-width:1.07142794;fill-opacity:1" />
    <path
       d="m 415.78196,116 0.31171,-0.28073 3.62579,-3.62578 0.28072,-0.31172 v -0.40651 -0.0601 l -0.28072,0.31171 -3.62579,3.62579 -0.31171,0.28072 h -0.40652 -4.75052 -0.40651 l -0.31171,-0.28072 -3.62579,-3.62579 -0.28073,-0.31171 v 0.0601 0.40651 l 0.28073,0.31172 3.62579,3.62578 0.31171,0.28073 h 0.40651 4.75052 z"
       id="path8"
       inkscape:connector-curvature="0"
       style="opacity:0.2;fill:#000000;fill-opacity:1" />
  </g>
  <g
     id="g840"
     transform="translate(-25.423729,4.6101492)">
    <path
       style="fill:#ffffff;stroke-width:1.23076594"
       inkscape:connector-curvature="0"
       id="path4-3"
       d="m 34.295107,0.51356563 q 0,1.46461167 -0.104615,2.66707037 -0.104615,1.1852278 -0.260923,2.3704572 H 32.91788 Q 32.761572,4.3658638 32.656957,3.180636 32.552342,1.9781773 32.552342,0.51356563 V -2.7639646 h 1.742765 z m 0.296615,7.86213357 q 0,0.470153 -0.313846,0.819691 -0.312614,0.348306 -0.854152,0.348306 -0.541537,0 -0.854151,-0.348306 -0.313846,-0.349538 -0.313846,-0.819691 0,-0.470153 0.313846,-0.81969 0.313845,-0.348307 0.854151,-0.348307 0.541538,0 0.854152,0.348307 0.313846,0.349537 0.313846,0.81969 z" />
    <g
       id="g851"
       transform="translate(-12.40678,-4.8283697)" />
  </g>
</svg>
